X: 1
T: Bog Carrot, The
M: 4/4
L: 1/8
R: reel
K: Dmaj
|:E|FAdA BdAd|BdAF E3G|FAdA BdAd|BdAF E2D:|
A|:f3e defg|afdf e2de|fgfe defe|dBAF E2D2:|
afdf afdf|ge=ce ge^ce|afdf afdf|gece d3f|
afdf afdf|ge=ce ge^ce|afge fdec|dBAF E2D|
